X:175
T:General Taylor
R:song
Z:id:hn-song-175
M:3/4
L:1/8
Q:1/4=160
K:G
D2 D2 F2 | F4 A2 | A2 B2 c2 | d6 |
A2 A2 B2 | B4 G2 | AA A2 A2 | A6 |
c2 B2 c2 | e2 d2 c2 | B2 A2 G2 | d6 |
G2 G2 G2 | B2 A2 B2 | G2 G2 G2 | G4 ||
Bc | d3 c B2 | c4 d2 | B2 A2 G2 | A6 |
A2 A2 A2 | B4 G2 | AA A2 A2 | A4
BB | c2 B2 c2 | e2 d2 c2 | B2 A2 G2 | d6 |
G2 G2 G2 | B2 A2 B2 | G2 G2 G2 | G6 ||
W:General Taylor gained this day,
W:Walk him along John, carry him along,
W:General Taylor gained this day,
W:Carry him to his burial ground.
W:
W:Chorus:
W:And away you stormy,
W:Walk him along John, carry him along,
W:And away you stormy,
W:Carry him to his burial ground.
W:
W:And they dug his grave with a silver spade,
W:Walk him along John, carry him along,
W:And they dug his grave with a silver spade,
W:Carry him to his burial ground.
W:
W:Chorus
W:
W:And they lowered him down with a golden chain,
W:Walk him along John, carry him along,
W:And they lowered him down with a golden chain,
W:Carry him to his burial ground.
W:
W:Chorus
W:
W:General Taylor died long ago 
W:Walk him along John, carry him along
W:General Taylor died long ago 
W:Carry him to his burial ground.

